src/xmb/monochrome/Nintendo - Wii (Digital) (CDN).svg

<svg xmlns="http://www.w3.org/2000/svg" xml:space="preserve" id="Layer_1" x="0" y="0" version="1.1" viewBox="0 0 64 64"><style>.st0{fill:#fff}</style><path d="m51.3 13.8-2-.8.8-2.1v-.1s0-.1-.1-.1l-1.4-.6c-.1 0-.2 0-.2.1l-.8 2.1-2-.8h-.1s-.1 0-.1.1l-.6 1.4c0 .1 0 .1.1.2l2 .8-.8 2c0 .1 0 .1.1.2l1.4.6c.1 0 .2 0 .2-.1l.8-2.1 2 .8c.1 0 .2 0 .2-.1l.6-1.4zq.15 0 0 0" class="st0"/><path d="m56.3 6.5-9.5-3.7c-.3-.1-.5-.2-.8-.1-.8 0-1.5.5-1.8 1.3L24.4 54.8c-.4 1 .1 2.2 1.1 2.6l9.5 3.7c1 .4 2.2-.1 2.6-1.2L57.5 9.1c.4-1-.2-2.2-1.2-2.6M45.8 5.2c.2-.5.7-.9 1.3-.9.2 0 .4 0 .5.1.3.1.6.4.8.8.2.3.2.7 0 1.1s-.3.6-.7.7c-.3.2-.7.2-1.1 0-.7-.2-1.1-1.1-.8-1.8m-6 29.6c.3.1.1.5-.2.4-.2-.1 0-.5.2-.4m-.5.9h.1c.3.1.1.7-.2.5-.2-.1-.1-.5.1-.5m-2 1.9h.1c.4.2.2.8-.2.6-.3-.1-.2-.6.1-.6m-.5 1.7c-.3-.1-.1-.6.2-.5.3.2.1.7-.2.5m1-2.9h.1c.4.2.2.8-.2.6-.3-.1-.2-.6.1-.6m.6-1.1c.3.1.1.6-.2.5s-.1-.6.2-.5m.4-1c.3.1.1.5-.2.4-.3 0-.1-.5.2-.4m.1 2.5h.1c.4.2.2.8-.2.6-.3-.1-.2-.6.1-.6m-2.5-8c.2-.5.7-.9 1.3-.9.2 0 .4 0 .5.1.3.1.6.4.8.8s.2.7 0 1.1-.4.6-.8.8c-.3.1-.7.2-1.1 0-.6-.3-1-1.2-.7-1.9m.2 11.1c.3.1.1.5-.2.4-.2-.1-.1-.5.2-.4m-7.3 13-1-.4.4-1 1 .4zm2.4 1-1-.4.4-1 1 .4zm2.3.9-1-.4.4-1 1 .4zm.7-3.4c-.5.2-.9.2-1.4 0-.9-.4-1.4-1.4-1-2.4.3-.7 1-1.1 1.7-1.2.2 0 .5 0 .7.1.9.4 1.4 1.4 1 2.4-.2.6-.6.9-1 1.1m1.5 4.2-1-.4.4-1 1 .4zm1.3-10c-.2.5-.5.8-1 1s-.9.2-1.4 0-.8-.5-1-1-.2-.9 0-1.4c.3-.7 1-1.1 1.7-1.2.2 0 .5 0 .7.1.5.2.8.5 1 1q.3.9 0 1.5m0-4.9c-.3-.1-.1-.5.2-.4.2.1.1.5-.2.4m.4-.9c-.3-.1-.2-.5.1-.5h.1c.3.1.1.6-.2.5m.5-1.8h.1c.4.2.2.8-.2.6-.3-.1-.2-.5.1-.6m.2 3.1c-.3-.1-.1-.5.2-.4.2.1 0 .5-.2.4m.3-.9c-.3-.1-.1-.6.2-.5s.1.6-.2.5m.5-1.1c-.3-.1-.2-.6.1-.6h.1c.4.1.2.7-.2.6m.4-1.3c-.3-.1-.2-.6.1-.6h.1c.5.2.2.8-.2.6m.5-1.2c-.3-.1-.1-.6.2-.5.3.2.1.6-.2.5m.4-1c-.3-.1-.1-.5.2-.4s.1.5-.2.4m2-4.3c-.1.4-.4.6-.8.8-.3.2-.7.2-1.1 0-.3-.1-.6-.4-.8-.8s-.2-.7 0-1.1c.2-.5.7-.9 1.3-.9.2 0 .4 0 .5.1.3.1.6.4.8.8.2.3.2.7.1 1.1m3.8 1.4c-.1.3-.4.6-.8.8-.3.2-.7.2-1.1 0-.7-.3-1.1-1.1-.8-1.8.2-.5.7-.9 1.3-.9.2 0 .4 0 .5.1.3.1.6.4.8.8.2.3.2.7.1 1m.7-10.1c-.2.6-.7 1.1-1.3 1.4s-1.3.3-1.9 0c-.6-.2-1.1-.7-1.4-1.3s-.3-1.3 0-1.9c.2-.6.7-1.1 1.3-1.4.3-.1.6-.2 1-.2.3 0 .6 0 1 .2.6.2 1.1.7 1.4 1.3.2.6.2 1.3-.1 1.9m4.7-8.4-.6 1.4c-.1.3-.5.5-.9.4l-1.5-.6-.6 1.5c-.1.2-.2.3-.4.4s-.3.1-.5 0l-1.4-.6c-.3-.1-.5-.5-.4-.9l.6-1.6-1.5-.6c-.3-.1-.5-.5-.4-.9l.6-1.4c.1-.3.5-.5.9-.4l1.5.6.6-1.6c.1-.2.3-.4.6-.4h.3l1.4.6c.2.1.3.2.4.4s.1.4 0 .5l-.6 1.7 1.5.6c.2.1.3.2.4.4.1.1.1.3 0 .5" class="st0"/><path d="M46.8 6.6c.4.2 1-.1 1.1-.5.1-.3.1-.5.1-.7-.1-.2-.3-.4-.5-.5-.1 0-.2-.1-.3-.1s-.2 0-.3.1c-.2.1-.4.3-.5.5-.3.5 0 1 .4 1.2M34.4 48.5c-.2-.1-.3-.1-.5-.1s-.3 0-.5.1c-.3.1-.6.4-.7.7-.3.7.1 1.4.7 1.7.7.2 1.4-.1 1.7-.7.3-.7 0-1.4-.7-1.7m1.9-4.7c-.2-.1-.3-.1-.5-.1s-.3 0-.5.1c-.3.1-.6.4-.7.7s-.1.7 0 1 .4.6.7.7c.7.2 1.4-.1 1.7-.7.1-.3.1-.7 0-1-.1-.4-.4-.6-.7-.7m5.4-13.9c-.1 0-.2-.1-.3-.1s-.2 0-.3.1c-.2.1-.4.3-.5.5s-.1.5 0 .7.3.4.5.5c.4.2 1-.1 1.1-.5.1-.2.1-.5 0-.7s-.3-.4-.5-.5m3.8 1.5c-.1 0-.2-.1-.3-.1s-.2 0-.3.1c-.2.1-.4.3-.5.5-.2.5 0 1 .5 1.1.4.2 1-.1 1.1-.5.1-.2.1-.5 0-.7-.1-.1-.3-.3-.5-.4m-8.1-1.3c.4.2 1-.1 1.1-.5.1-.2.1-.5 0-.7s-.3-.4-.5-.5c-.1 0-.2-.1-.3-.1s-.2 0-.3.1c-.2.1-.4.3-.5.5-.2.6.1 1.1.5 1.2m-26.88-5.93v-8.92c0-.82.66-1.48 1.48-1.48h2.96c.82 0 1.48.66 1.48 1.48v8.92h4.46l-7.44 8.92-7.44-8.92zm9.66 11.89H6.8c-.46 0-.76-.3-.76-.76s.3-.76.76-.76h13.38c.46 0 .76.3.76.76-.02.49-.32.76-.76.76m1.5-4.45h-1.51v1.48h-1.48v-1.48H17.2v-1.48h1.48v-1.48h1.48v1.48h1.51v1.48z" class="st0"/></svg>

<?xml version="1.0" encoding="utf-8"?>
<!-- Generator: Adobe Illustrator 26.3.1, SVG Export Plug-In . SVG Version: 6.00 Build 0)  -->
<svg version="1.1" id="Layer_1" xmlns="http://www.w3.org/2000/svg" xmlns:xlink="http://www.w3.org/1999/xlink" x="0px" y="0px"
	 viewBox="0 0 64 64" style="enable-background:new 0 0 64 64;" xml:space="preserve">
<style type="text/css">
	.st0{fill:#FFFFFF;}
</style>
<g>
	<path class="st0" d="M51.3,13.8l-2-0.8l0.8-2.1v-0.1c0,0,0-0.1-0.1-0.1l0,0l-1.4-0.6c-0.1,0-0.2,0-0.2,0.1l-0.8,2.1l-2-0.8h-0.1
		c0,0-0.1,0-0.1,0.1L44.8,13c0,0.1,0,0.1,0.1,0.2l2,0.8l-0.8,2c0,0.1,0,0.1,0.1,0.2l1.4,0.6c0.1,0,0.2,0,0.2-0.1l0.8-2.1l2,0.8
		c0.1,0,0.2,0,0.2-0.1l0.6-1.4C51.4,13.9,51.4,13.9,51.3,13.8C51.4,13.8,51.4,13.8,51.3,13.8z"/>
	<path class="st0" d="M56.3,6.5l-9.5-3.7c-0.3-0.1-0.5-0.2-0.8-0.1l0,0c-0.8,0-1.5,0.5-1.8,1.3L24.4,54.8c-0.4,1,0.1,2.2,1.1,2.6
		l9.5,3.7c1,0.4,2.2-0.1,2.6-1.2L57.5,9.1C57.9,8.1,57.3,6.9,56.3,6.5z M45.8,5.2c0.2-0.5,0.7-0.9,1.3-0.9c0.2,0,0.4,0,0.5,0.1
		c0.3,0.1,0.6,0.4,0.8,0.8c0.2,0.3,0.2,0.7,0,1.1S48.1,6.9,47.7,7c-0.3,0.2-0.7,0.2-1.1,0C45.9,6.8,45.5,5.9,45.8,5.2z M39.8,34.8
		c0.3,0.1,0.1,0.5-0.2,0.4C39.4,35.1,39.6,34.7,39.8,34.8z M39.3,35.7h0.1c0.3,0.1,0.1,0.7-0.2,0.5C39,36.1,39.1,35.7,39.3,35.7z
		 M37.3,37.6h0.1c0.4,0.2,0.2,0.8-0.2,0.6C36.9,38.1,37,37.6,37.3,37.6z M36.8,39.3c-0.3-0.1-0.1-0.6,0.2-0.5
		C37.3,39,37.1,39.5,36.8,39.3z M37.8,36.4h0.1c0.4,0.2,0.2,0.8-0.2,0.6C37.4,36.9,37.5,36.4,37.8,36.4z M38.4,35.3
		c0.3,0.1,0.1,0.6-0.2,0.5S38.1,35.2,38.4,35.3z M38.8,34.3c0.3,0.1,0.1,0.5-0.2,0.4C38.3,34.7,38.5,34.2,38.8,34.3z M38.9,36.8H39
		c0.4,0.2,0.2,0.8-0.2,0.6C38.5,37.3,38.6,36.8,38.9,36.8z M36.4,28.8c0.2-0.5,0.7-0.9,1.3-0.9c0.2,0,0.4,0,0.5,0.1
		c0.3,0.1,0.6,0.4,0.8,0.8s0.2,0.7,0,1.1s-0.4,0.6-0.8,0.8c-0.3,0.1-0.7,0.2-1.1,0C36.5,30.4,36.1,29.5,36.4,28.8z M36.6,39.9
		c0.3,0.1,0.1,0.5-0.2,0.4C36.2,40.2,36.3,39.8,36.6,39.9z M29.3,52.9l-1-0.4l0.4-1l1,0.4L29.3,52.9z M31.7,53.9l-1-0.4l0.4-1l1,0.4
		L31.7,53.9z M34,54.8l-1-0.4l0.4-1l1,0.4L34,54.8z M34.7,51.4c-0.5,0.2-0.9,0.2-1.4,0c-0.9-0.4-1.4-1.4-1-2.4
		c0.3-0.7,1-1.1,1.7-1.2c0.2,0,0.5,0,0.7,0.1c0.9,0.4,1.4,1.4,1,2.4C35.5,50.9,35.1,51.2,34.7,51.4z M36.2,55.6l-1-0.4l0.4-1l1,0.4
		L36.2,55.6z M37.5,45.6c-0.2,0.5-0.5,0.8-1,1s-0.9,0.2-1.4,0s-0.8-0.5-1-1s-0.2-0.9,0-1.4c0.3-0.7,1-1.1,1.7-1.2
		c0.2,0,0.5,0,0.7,0.1c0.5,0.2,0.8,0.5,1,1C37.7,44.7,37.7,45.2,37.5,45.6z M37.5,40.7c-0.3-0.1-0.1-0.5,0.2-0.4
		C37.9,40.4,37.8,40.8,37.5,40.7z M37.9,39.8c-0.3-0.1-0.2-0.5,0.1-0.5h0.1C38.4,39.4,38.2,39.9,37.9,39.8z M38.4,38h0.1
		c0.4,0.2,0.2,0.8-0.2,0.6C38,38.5,38.1,38.1,38.4,38z M38.6,41.1c-0.3-0.1-0.1-0.5,0.2-0.4C39,40.8,38.8,41.2,38.6,41.1z
		 M38.9,40.2c-0.3-0.1-0.1-0.6,0.2-0.5S39.2,40.3,38.9,40.2z M39.4,39.1c-0.3-0.1-0.2-0.6,0.1-0.6h0.1C40,38.6,39.8,39.2,39.4,39.1z
		 M39.8,37.8c-0.3-0.1-0.2-0.6,0.1-0.6H40C40.5,37.4,40.2,38,39.8,37.8z M40.3,36.6c-0.3-0.1-0.1-0.6,0.2-0.5
		C40.8,36.3,40.6,36.7,40.3,36.6z M40.7,35.6c-0.3-0.1-0.1-0.5,0.2-0.4C41.2,35.3,41,35.7,40.7,35.6z M42.7,31.3
		c-0.1,0.4-0.4,0.6-0.8,0.8c-0.3,0.2-0.7,0.2-1.1,0c-0.3-0.1-0.6-0.4-0.8-0.8s-0.2-0.7,0-1.1c0.2-0.5,0.7-0.9,1.3-0.9
		c0.2,0,0.4,0,0.5,0.1c0.3,0.1,0.6,0.4,0.8,0.8C42.8,30.5,42.8,30.9,42.7,31.3z M46.5,32.7c-0.1,0.3-0.4,0.6-0.8,0.8
		c-0.3,0.2-0.7,0.2-1.1,0c-0.7-0.3-1.1-1.1-0.8-1.8c0.2-0.5,0.7-0.9,1.3-0.9c0.2,0,0.4,0,0.5,0.1c0.3,0.1,0.6,0.4,0.8,0.8
		C46.6,32,46.6,32.4,46.5,32.7z M47.2,22.6c-0.2,0.6-0.7,1.1-1.3,1.4s-1.3,0.3-1.9,0c-0.6-0.2-1.1-0.7-1.4-1.3
		c-0.3-0.6-0.3-1.3,0-1.9c0.2-0.6,0.7-1.1,1.3-1.4c0.3-0.1,0.6-0.2,1-0.2c0.3,0,0.6,0,1,0.2c0.6,0.2,1.1,0.7,1.4,1.3
		C47.5,21.3,47.5,22,47.2,22.6z M51.9,14.2l-0.6,1.4c-0.1,0.3-0.5,0.5-0.9,0.4l-1.5-0.6l-0.6,1.5c-0.1,0.2-0.2,0.3-0.4,0.4
		s-0.3,0.1-0.5,0L46,16.7c-0.3-0.1-0.5-0.5-0.4-0.9l0.6-1.6l-1.5-0.6c-0.3-0.1-0.5-0.5-0.4-0.9l0.6-1.4c0.1-0.3,0.5-0.5,0.9-0.4
		l1.5,0.6l0.6-1.6c0.1-0.2,0.3-0.4,0.6-0.4c0.1,0,0.2,0,0.3,0l1.4,0.6c0.2,0.1,0.3,0.2,0.4,0.4c0.1,0.2,0.1,0.4,0,0.5L50,12.7
		l1.5,0.6c0.2,0.1,0.3,0.2,0.4,0.4C52,13.8,52,14,51.9,14.2z"/>
	<path class="st0" d="M46.8,6.6c0.4,0.2,1-0.1,1.1-0.5C48,5.8,48,5.6,48,5.4c-0.1-0.2-0.3-0.4-0.5-0.5c-0.1,0-0.2-0.1-0.3-0.1
		s-0.2,0-0.3,0.1c-0.2,0.1-0.4,0.3-0.5,0.5C46.1,5.9,46.4,6.4,46.8,6.6z"/>
	<path class="st0" d="M34.4,48.5c-0.2-0.1-0.3-0.1-0.5-0.1s-0.3,0-0.5,0.1c-0.3,0.1-0.6,0.4-0.7,0.7c-0.3,0.7,0.1,1.4,0.7,1.7
		c0.7,0.2,1.4-0.1,1.7-0.7C35.4,49.5,35.1,48.8,34.4,48.5z"/>
	<path class="st0" d="M36.3,43.8c-0.2-0.1-0.3-0.1-0.5-0.1s-0.3,0-0.5,0.1c-0.3,0.1-0.6,0.4-0.7,0.7c-0.1,0.3-0.1,0.7,0,1
		s0.4,0.6,0.7,0.7c0.7,0.2,1.4-0.1,1.7-0.7c0.1-0.3,0.1-0.7,0-1C36.9,44.1,36.6,43.9,36.3,43.8z"/>
	<path class="st0" d="M41.7,29.9c-0.1,0-0.2-0.1-0.3-0.1s-0.2,0-0.3,0.1c-0.2,0.1-0.4,0.3-0.5,0.5s-0.1,0.5,0,0.7s0.3,0.4,0.5,0.5
		c0.4,0.2,1-0.1,1.1-0.5c0.1-0.2,0.1-0.5,0-0.7C42.1,30.2,41.9,30,41.7,29.9z"/>
	<path class="st0" d="M45.5,31.4c-0.1,0-0.2-0.1-0.3-0.1s-0.2,0-0.3,0.1c-0.2,0.1-0.4,0.3-0.5,0.5c-0.2,0.5,0,1,0.5,1.1
		c0.4,0.2,1-0.1,1.1-0.5c0.1-0.2,0.1-0.5,0-0.7C45.9,31.7,45.7,31.5,45.5,31.4z"/>
	<path class="st0" d="M37.4,30.1c0.4,0.2,1-0.1,1.1-0.5c0.1-0.2,0.1-0.5,0-0.7s-0.3-0.4-0.5-0.5c-0.1,0-0.2-0.1-0.3-0.1
		s-0.2,0-0.3,0.1c-0.2,0.1-0.4,0.3-0.5,0.5C36.7,29.5,37,30,37.4,30.1z"/>
</g>
<g>
	<path class="st0" d="M10.52,24.17v-8.92c0-0.82,0.66-1.48,1.48-1.48h2.96c0.82,0,1.48,0.66,1.48,1.48v8.92h4.46l-7.44,8.92
		l-7.44-8.92C6.06,24.17,10.52,24.17,10.52,24.17z M20.18,36.06H6.8c-0.46,0-0.76-0.3-0.76-0.76s0.3-0.76,0.76-0.76h13.38
		c0.46,0,0.76,0.3,0.76,0.76C20.92,35.79,20.62,36.06,20.18,36.06z M21.68,31.61h-1.51v1.48h-1.48v-1.48H17.2v-1.48h1.48v-1.48h1.48
		v1.48h1.51V31.61z"/>
</g>
</svg>
